data/sheikah/u.svg

<!-- Generated by IcoMoon.io -->
<svg version="1.1" xmlns="http://www.w3.org/2000/svg" width="1024" height="1024" viewBox="0 0 1024 1024">
<title></title>
<g id="icomoon-ignore">
</g>
<path d="M870.5 751l-119.5 119.5h-478l-119.5-119.5h717zM352.5 352.5h119.5v119.5h-119.5v-119.5zM552 352.5h119.5v119.5h-119.5v-119.5zM751 671.5h119.5v-398.5l-119.5-119.5v518zM671.5 153.5v119.5h-398.5v279h398.5v119.5h-398.5l-119.5-119.5v-279l119.5-119.5h398.5z"></path>
</svg>

<svg xmlns="http://www.w3.org/2000/svg" width="1024" height="1024" viewBox="0 0 1024 1024">
  <title/>
  <path d="M870.5 751 751 870.5H273L153.5 751zm-518-398.5H472V472H352.5zm199.5 0h119.5V472H552zm199 319h119.5V273L751 153.5zm-79.5-518V273H273v279h398.5v119.5H273L153.5 552V273L273 153.5z"/>
</svg>
